X:2
T:How About You
C:Burton Lane
L:1/4
M:C
I:linebreak $
K:C
"C6" C2"Dm" D B, |"Em" C D"Ebo" B,2 |"Dm" A, A, A, E |"G7" z4 Ox/||$"C6" C2"Dm" D B, |
"Em" C D"Ebo" B,2 |"Eø" _B, _B, _B, F |"A7" z4 |$"Dm" z E D C |"G7" D E C2 |
"Em" D E"Am" C C ||[K:E]"F#ø" =C2"B7" z2 ||$"G#m" B, B,/B,/"C#m" B, B,/B,/ |
"F#m" B, B,/B,/"B7" B, B,/B,/ |"E7" G G"A7" z2 ||[K:C]"D7" z4"G7" "_D.C. al Coda" x4 ||$Ox/"Gm" G2 A F |
"C7" G A F2 |"F" E E E D |"Bb7" z2 E F |$"Em" G C/C/C/C/ C |"Ebo" ^G C/C/C/C/ C |"F" z A G F |
"Bb7" E3 D |$"Em" C2"Ebo" D B, |"Dm" C A"G7" B,2 |"C6" C4 | z4 |]

